svgs/chrome_remote_desktop.svg

<svg width="24" height="24" viewBox="0 0 24 24" fill="none" xmlns="http://www.w3.org/2000/svg">
<path d="M14.8279 15.25H10.5C9.05917 15.25 7.84042 16.1871 7.4125 17.4871L6.145 15.2879C7.13083 13.9554 8.7125 13.0833 10.5 13.0833C12.2712 13.0833 13.8367 13.9392 14.8279 15.25Z" fill="#FFF1C0"/>
<path d="M12.6667 18.5C12.6667 18.6484 12.6517 18.7933 12.6233 18.9333H8.37667C8.34825 18.7933 8.33333 18.6484 8.33333 18.5C8.33333 17.3034 9.30338 16.3333 10.5 16.3333C11.6966 16.3333 12.6667 17.3034 12.6667 18.5Z" fill="#FFF1C0"/>
<path d="M7.00092 18.9333L5.52208 16.3713C5.24042 17.0267 5.08333 17.7471 5.08333 18.5C5.08333 18.6459 5.0891 18.7904 5.1004 18.9333H7.00092Z" fill="#FFF1C0"/>
<path d="M15.9167 18.5C15.9167 18.6459 15.9109 18.7904 15.8996 18.9333H13.7207C13.74 18.7914 13.75 18.6467 13.75 18.5C13.75 17.6658 13.4358 16.9075 12.9158 16.3333H15.4617C15.7542 16.9996 15.9167 17.7308 15.9167 18.5Z" fill="#FFF1C0"/>
<path fill-rule="evenodd" clip-rule="evenodd" d="M19.2727 20.3636V16.7273H21.0909C21.593 16.7273 22 16.3203 22 15.8182V4C22 3.49793 21.593 3.09091 21.0909 3.09091H5.63636C5.13429 3.09091 4.72727 3.49793 4.72727 4V7.63637H2.90909C2.40701 7.63637 2 8.04338 2 8.54546V20.3636C2 20.8657 2.40701 21.2727 2.90909 21.2727H18.3636C18.8657 21.2727 19.2727 20.8657 19.2727 20.3636ZM6.09091 7.63637V4.45455H20.6364V15.3636H19.2727V8.54546C19.2727 8.04338 18.8657 7.63637 18.3636 7.63637H6.09091ZM3.36364 9V19.9091H17.9091V9H3.36364Z" fill="#FFF1C0"/>
</svg>

<svg xmlns="http://www.w3.org/2000/svg" viewBox="0 0 24 24"><path fill-rule="evenodd" d="M19.273 20.364v-3.637h1.818a.91.91 0 0 0 .909-.909V4a.91.91 0 0 0-.91-.91H5.637a.91.91 0 0 0-.909.91v3.636H2.91a.91.91 0 0 0-.909.91v11.818a.91.91 0 0 0 .91.909h15.454a.91.91 0 0 0 .909-.91M6.09 7.636V4.455h14.545v10.909h-1.363V8.545a.91.91 0 0 0-.91-.909H6.092zM3.364 9v10.91h14.545V9H3.364m9.303 9.5c0 .148-.015.293-.044.433H8.377a2.167 2.167 0 1 1 4.29-.433M7 18.933l-1.478-2.562a5.382 5.382 0 0 0-.422 2.562zm8.917-.433c0 .146-.006.29-.017.433h-2.18a3.213 3.213 0 0 0-.805-2.6h2.547c.292.667.455 1.398.455 2.167m-1.089-3.25H10.5a3.25 3.25 0 0 0-3.088 2.237l-1.267-2.2a5.41 5.41 0 0 1 4.355-2.204c1.771 0 3.337.856 4.328 2.167"/></svg>
